symbols/web/style/materialsymbolssharp/style_wght500fill1_48px.svg

<svg xmlns="http://www.w3.org/2000/svg" height="48" width="48"><path d="M7.3 27.95v12.9l-5-1.55Zm10.5 16.8h-5.3V30.3Zm5.55.1L11.5 12.5l22.15-8L45.6 36.75Zm-.95-25.9q.65 0 1.15-.475.5-.475.5-1.175 0-.65-.5-1.125T22.4 15.7q-.65 0-1.15.475-.5.475-.5 1.175 0 .65.5 1.125t1.15.475Z"/></svg>

<svg xmlns="http://www.w3.org/2000/svg" height="48" width="48"><path d="M7.3 27.95V40.85L2.3 39.3ZM17.8 44.75H12.5V30.3ZM23.35 44.85 11.5 12.5 33.65 4.5 45.6 36.75ZM22.4 18.95Q23.05 18.95 23.55 18.475Q24.05 18 24.05 17.3Q24.05 16.65 23.55 16.175Q23.05 15.7 22.4 15.7Q21.75 15.7 21.25 16.175Q20.75 16.65 20.75 17.35Q20.75 18 21.25 18.475Q21.75 18.95 22.4 18.95Z"/></svg>
